X:1
T:Title
%%score { ( 1 4 ) | ( 2 3 ) }
L:1/8
M:6/8
K:F
V:1 treble nm="Grand Piano"
V:4 treble 
V:2 bass 
V:3 bass 
V:1
 z3 z2[Q:1/4=84] F/G/ | A2 A AG[CFA] | [FAc]3 [CFA]2 [CFA] | [B,EG]2 [B,EG] [B,EG][CF][CEG] | %4
 A3- A2 F/G/ | A2 A AG[CFA] | [FAc]3 [CFA]2 [CFA] | z3 .E3 | [A,F]3- [A,F]2 [A,CF] | %9
 [EG]2 [EG] [GB][FA][EG] | A3 c2 d | c2 A AGF | [EG]3- [EG]2 F/G/ | A2 A AG[CFA] | %14
 [FAc]3 [CFA]2 [CF] | [B,EG]2 [B,EG] [CEA]2 [B,EG] |[M:5/8] [A,F]-[A,F]- [A,F]3 |[M:1/8] [Fc] | %18
[M:3/4] [Fd]2 [Fd]f e[Fd] | [Fc]3 [CFA]2 [A,F] | [B,EG]2 [B,EG][B,EG] F[CEG] | %21
[M:5/8] [CFA]3 [Ac]2 |[M:1/8] [Fc] |[M:3/4] [Fd]2 [Fd]f e[Fd] | [Fc]3 [CFA]2 [A,F] | %25
 [B,DG]2 [DFG] [CFA]2 [B,EG] |[M:5/8] [A,F]-[A,F]- [A,F]3 |] %27
V:2
 z3 z2 [F,C]/-[F,B,C]/ | [F,CF]2 [F,CF] FEF, | F,3 F,2 F, | C,2 C, z A,C, | %4
 [F,CF]3- [F,CF]2 [F,C]/-[F,B,C]/ | [F,CF]2 [F,CF] FEF, | F,3 F,2 F, | C,2 C, z CC, | F,3- F,2 F, | %9
 [C,C]2 [C,C] [C,C]2 [C,C] | [F,CF]3 [A,F]2 [B,F] | [A,F]2 [F,CF][K:bass] [F,CF][E,C][D,=B,] | %12
 z3 z2 .A, | [F,CF]2 [F,CF] FEF, | F,3 F,2 A,, | C,2 C, C,2 C, |[M:5/8] F,-F,- F,3 | %17
[M:1/8] [F,A,] |[M:3/4] z2 z .[B,,F]3 | [F,A,]3 F,2 F, | C,2 .C,2 A,C, |[M:5/8] F,3 [F,F]2 | %22
[M:1/8] [F,A,] |[M:3/4] z2 z .[B,,F]3 | [F,A,]3 F,2 F, | B,,2 B,, C,2 C, |[M:5/8] F,-F,- F,3 |] %27
V:3
 z3 z2 .A, | z3 .[F,C]3 | x6 | z3 .C,3 | z3 z2 .A, | z3 .[F,C]3 | x6 | z3 .C,3 | x6 | x6 | x6 | %11
 x3[K:bass] x3 | [C,C]3- [C,C]2 [F,C]/-[F,B,C]/ | z3 .[F,C]3 | x6 | x6 |[M:5/8] x5 |[M:1/8] x | %18
[M:3/4] [B,,B,]2 [B,,B,]D C[B,,B,] | x6 | z2 z .C,3 |[M:5/8] x5 |[M:1/8] x | %23
[M:3/4] [B,,B,]2 [B,,B,]D C[B,,B,] | x6 | x6 |[M:5/8] x5 |] %27
V:4
 x6 | x6 | x6 | x6 | x6 | x6 | x6 | [B,EG]2 [B,EG] [B,G]A[B,EG] | x6 | x6 | x6 | x6 | x6 | x6 | %14
 x6 | x6 |[M:5/8] x5 |[M:1/8] x |[M:3/4] x6 | x6 | x6 |[M:5/8] x5 |[M:1/8] x |[M:3/4] x6 | x6 | %25
 x6 |[M:5/8] x5 |] %27

